packages/core/src/svgs/ppt.svg

<svg width="24" height="24" viewBox="0 0 24 24" fill="none" xmlns="http://www.w3.org/2000/svg">
<g clip-path="url(#clip0_31_16452)">
<path d="M0 0H24V24H0V0Z" fill="#1E375E"/>
<path d="M11.143 19.8606V6.85693H15.1672C15.3211 6.85693 15.4287 6.98208 15.4287 7.13036V14.2982C15.4287 14.4465 15.3211 14.5725 15.175 14.5725H12.859V19.8606C12.859 20.0089 12.7432 20.1426 12.5898 20.1426H11.3701C11.1837 20.1332 11.1425 20.0192 11.143 19.8606ZM10.2858 14.5712H8.8561C8.70868 14.5678 8.57925 14.4491 8.57153 14.3072V7.13036C8.57153 6.98208 8.70225 6.85693 8.8561 6.85693H10.2858V14.5712ZM10.2858 5.14179C10.2858 5.84722 11.1447 6.42708 12.2144 6.42708C13.2841 6.42708 14.143 5.84722 14.143 5.14179C14.143 4.42908 13.2841 3.85693 12.2144 3.85693C11.1447 3.85693 10.2858 4.43679 10.2858 5.14179Z" fill="white"/>
</g>
<defs>
<clipPath id="clip0_31_16452">
<rect width="24" height="24" fill="white"/>
</clipPath>
</defs>
</svg>

<svg xmlns="http://www.w3.org/2000/svg" width="24" height="24" fill="none" viewBox="0 0 24 24"><g clip-path="url(#a)"><path fill="#1E375E" d="M0 0h24v24H0z"/><path fill="#fff" d="M11.143 19.86V6.858h4.024c.154 0 .262.125.262.273v7.168c0 .149-.108.274-.254.274h-2.316v5.289c0 .148-.116.282-.27.282H11.37c-.186-.01-.227-.124-.227-.282m-.857-5.289h-1.43a.29.29 0 0 1-.284-.264V7.13c0-.148.13-.273.284-.273h1.43zm0-9.43c0 .706.859 1.286 1.928 1.286 1.07 0 1.929-.58 1.929-1.285 0-.713-.859-1.285-1.929-1.285s-1.928.58-1.928 1.285"/></g><defs><clipPath id="a"><path fill="#fff" d="M0 0h24v24H0z"/></clipPath></defs></svg>
